X: 4585
T: Bouffe Doigts
R: waltz
M: 3/4
K: Dmajor
B,DFGFD|B3 c B2|A3 BAG|F2 B,3 C|
DEFGFD|B3 c B2|A2 F3 A|^A2 F2 A2|
Bcdedc|d4 A2|FGFEDC|D2 B,3 C|
B,CDEF^G|ABcdec|d2 c2 B2|A4 A2|
|:BDGBcB|A2 F2 AF|EA,CEFE|D2 B,3 C|
DEFDAD|CDECEA|^GABcde|f3 edc|
BDGBcB|A2 F2 AF|EA,CEFE|D2 B,3 C|
B,CDEF^G|ABcdec|cecFcF|1 B2 FEDC:|2 B4||

